X:132
T:score215
L:1/16
Q:1/4=96
M:2/4
I:linebreak $
K:Bb
!p! (.b.c'.b.g .a.b.a.^f) | (.g.a.g.e .f.g.f.d) | (.e.f.e.c .d.e.d.=B) | (.d2 !>!c4 .c2) |$ %4
!p! (abaf gage) | (^fgfd e=fec) | (dedB cdcB) | (.c2 !>!B4 .B2) |] %8
